img/how-we-are-working-image-one.svg

<svg xmlns="http://www.w3.org/2000/svg" width="2.858cm" height="2.858cm">
  <path fill="#F49E9C" fill-rule="evenodd" d="M81 30.849V7.119C81 3.209 77.816 0 73.88 0H35.912c-3.926 0-7.119 3.2-7.119 7.119v11.865H11.865c-3.926 0-7.119 3.194-7.119 7.119v35.912H2.373A2.373 2.373 0 0 0 0 64.388v4.747C0 75.677 5.323 81 11.865 81h57.269C75.677 81 81 75.677 81 69.135v-4.747a2.374 2.374 0 0 0-2.374-2.373h-2.373V37.561A7.134 7.134 0 0 0 81 30.849zM33.539 8.102l10.882 10.882-10.882 10.882V8.102zm42.714 21.764L65.371 18.984 76.253 8.102v21.764zm-19.679-8.797a2.376 2.376 0 0 1-3.356 0L36.895 4.746h36.002L56.574 21.069zm-8.797 1.271l2.085 2.085a7.127 7.127 0 0 0 10.068 0l2.085-2.085 10.882 10.882H36.895L47.777 22.34zm28.476 46.795c0 3.925-3.193 7.119-7.119 7.119H11.865c-3.926 0-7.119-3.194-7.119-7.119v-2.373H23.73v2.373a2.374 2.374 0 0 0 2.373 2.373h28.793a2.374 2.374 0 0 0 2.373-2.373v-2.373h18.984v2.373zm-21.357-7.12a2.374 2.374 0 0 0-2.373 2.373v2.374H28.476v-2.374a2.374 2.374 0 0 0-2.373-2.373H9.492V26.103a2.376 2.376 0 0 1 2.373-2.373h16.928v7.119c0 3.926 3.2 7.12 7.119 7.12h35.595v24.046H54.896z"/>
</svg>

<svg
 xmlns="http://www.w3.org/2000/svg"
 xmlns:xlink="http://www.w3.org/1999/xlink"
 width="2.858cm" height="2.858cm">
<path fill-rule="evenodd"  fill="rgb(244, 158, 156)"
 d="M81.000,30.849 L81.000,7.119 C81.000,3.209 77.816,-0.000 73.880,-0.000 L35.912,-0.000 C31.986,-0.000 28.793,3.200 28.793,7.119 L28.793,18.984 L11.865,18.984 C7.939,18.984 4.746,22.178 4.746,26.103 L4.746,62.015 L2.373,62.015 C1.062,62.015 -0.000,63.078 -0.000,64.388 L-0.000,69.135 C-0.000,75.677 5.323,81.000 11.865,81.000 L69.134,81.000 C75.677,81.000 81.000,75.677 81.000,69.135 L81.000,64.388 C81.000,63.078 79.937,62.015 78.626,62.015 L76.253,62.015 L76.253,37.561 C79.042,36.572 81.000,33.913 81.000,30.849 ZM33.539,8.102 L44.421,18.984 L33.539,29.866 L33.539,8.102 ZM76.253,29.866 L65.371,18.984 L76.253,8.102 L76.253,29.866 ZM56.574,21.069 C55.648,21.994 54.144,21.994 53.218,21.069 L36.895,4.746 L72.897,4.746 L56.574,21.069 ZM47.777,22.340 L49.862,24.425 C52.638,27.201 57.154,27.201 59.930,24.425 L62.015,22.340 L72.897,33.222 L36.895,33.222 L47.777,22.340 ZM76.253,69.135 C76.253,73.060 73.060,76.254 69.134,76.254 L11.865,76.254 C7.939,76.254 4.746,73.060 4.746,69.135 L4.746,66.762 L7.119,66.762 L23.730,66.762 L23.730,69.135 C23.730,70.445 24.793,71.508 26.103,71.508 L54.896,71.508 C56.206,71.508 57.269,70.445 57.269,69.135 L57.269,66.762 L73.880,66.762 L76.253,66.762 L76.253,69.135 ZM54.896,62.015 C53.586,62.015 52.523,63.078 52.523,64.388 L52.523,66.762 L28.476,66.762 L28.476,64.388 C28.476,63.078 27.413,62.015 26.103,62.015 L9.492,62.015 L9.492,26.103 C9.492,24.795 10.556,23.730 11.865,23.730 L28.793,23.730 L28.793,30.849 C28.793,34.775 31.993,37.969 35.912,37.969 L71.507,37.969 L71.507,62.015 L54.896,62.015 Z"/>
</svg>
